X: 37620
T: Sneachta
R: reel
M: 4/4
K: Eminor
|:"Em"BABc BGE2|"Am"AGAc "Bm"B2A2|"Em"BABc AGEF|"Am"AA"G"GF "Em"E2E2:|
|:"Em"EBeB e3d|"G"BABc BGE2|"Bm"EBdB d2BA|"D"FAGF "Em"E4:|

